X: 33765
T: Ravelled Hank Of Yarn
R: reel
M: 4/4
K: Gmajor
D2|:"G"~B2 dB "D"cA (3AAA|"G"BG (3GFG "D"~d2 dc|"G"~B2 dB "Am"cA (3AAA|"G"dB"D7"cA "G"BG ~G2|
"G"DGBd "D"cA (3AAA|"G"BG (3GFG "D"dedc|"G"BABd "Am"cA (3AAA||1 "G"dB"D7"cA "G"BG ~G2:|2 "G"dB"D7"cA "G"BGBc||
|:"G"dg (3gfg gfde|dcBc ~d2 Bc|dg (3gfg gfde|"Am7"dcAB "D7"~c2 Bc|
"G"dg (3gfg gfde|dcBc "D7"defd|"G"(3gfg bg (3gfg bg|"Em7"(3gfg bg "D7"afdc:|

